public/images/payment.svg

<svg height="106.467" viewBox="0 0 106.467 106.467" width="106.467" xmlns="http://www.w3.org/2000/svg"><path d="m0 0h106.467v106.467h-106.467z" fill="none"/><path d="m80.85 48.361v-35.489a8.9 8.9 0 0 0 -8.872-8.872h-62.106a8.9 8.9 0 0 0 -8.872 8.872v35.489a8.9 8.9 0 0 0 8.872 8.872h62.106a8.9 8.9 0 0 0 8.872-8.872zm-39.925-4.436a13.308 13.308 0 1 1 13.308-13.308 13.291 13.291 0 0 1 -13.308 13.308zm57.67-26.617v48.8a8.9 8.9 0 0 1 -8.872 8.872h-75.415v-8.874h75.414v-48.8z" fill="#fff" transform="translate(3.436 13.744)"/></svg>

<svg id="payments-24px" xmlns="http://www.w3.org/2000/svg" width="106.467" height="106.467" viewBox="0 0 106.467 106.467">
  <path id="Path_6297" data-name="Path 6297" d="M0,0H106.467V106.467H0Z" fill="none"/>
  <path id="Path_6298" data-name="Path 6298" d="M80.85,48.361V12.872A8.9,8.9,0,0,0,71.978,4H9.872A8.9,8.9,0,0,0,1,12.872V48.361a8.9,8.9,0,0,0,8.872,8.872H71.978A8.9,8.9,0,0,0,80.85,48.361ZM40.925,43.925A13.308,13.308,0,1,1,54.233,30.617,13.291,13.291,0,0,1,40.925,43.925Zm57.67-26.617v48.8a8.9,8.9,0,0,1-8.872,8.872H14.308V66.106H89.722v-48.8Z" transform="translate(3.436 13.744)" fill="#fff"/>
</svg>
